X:1
T:05 - Non al suo amante piu
T:Luca Marenzio (1556 - 1599) 1º Libro di Madrigali a quattro voci (Venetia, 1592)
T:Francesco Petrarca
T:05 - Non al suo amante piu
T:© 2018 Ed. Marcos Mato
T:© 2018 Ed. Marcos Mato
T:© 2018 Ed. Marcos Mato
T:© 2018 Ed. Marcos Mato
T:© 2018 Ed. Marcos Mato
C:Luca Marenzio (1556 - 1599)
C:1º Libro di Madrigali a quattro voci (Venetia, 1592)
Z:Francesco Petrarca
Z:© 2018 Ed. Marcos Mato
%%score [ 1 2 3 4 ]
L:1/8
M:4/4
K:C
V:1 treble nm="Soprano" snm="Sop."
V:2 alto2 nm="Alto" snm="A."
V:3 alto transpose=-12 nm="Tenor" snm="T."
V:4 tenor nm="Basso" snm="Bajo"
V:1
 c4 | [Ef]2 |[M:4/2] c8 c4 d4 | e8 d8 | z4 d2 d2 c2 B2 A4 | B3 c d4 g8 | e16 | z4 B4 c2 d2 e2 c2 | %8
w: ||Non al suo\_a-|man- te|più Di- a- na pi-|ac- * que, quan-|do|per tal ven- tu- ra|
 d2 c2 B2 BA G4 E4 | z4 B4 d4 e4- | e4 A8 A4 | ^G4 G4 ABcd e2 dc | B2 c4 B2 c4 z2 e2 | %13
w: tut- ta\_i- gnu- da la vi- de|in mez- zo|_ de le|ge- li- de\_ac- * * * * * *|* * * que, ch'à|
 e2 c2 d2 e2 f8 | e4 d8 c4 | c16- | c8 c8 | z2 e2 d2 e2 d8 | z2 d2 d3 e c2 c2 d4 | %19
w: me la pas- to- rel-|la\_al- pes- tr'e|cru-|* da|post' a ba- gnar|un leg- gia- dret- to ve-|
 e3 f g4 z2 d2 d3 d | e2 B2 d4 d8 | B8 A8 | A4 A2 B2 c2 cd e4 | d6 c2 B8 | c4 z4 z2 c2 B2 Bc | %25
w: * * lo, un leg- gia-|dret- to ve- lo,|ch'a l'au-|ra\_il va- go\_e bion- do ca- pel|chiu- * *|da, e bion- do ca-|
 d2 DE FG A4"^#" ^G^F G4 | A8 z2 A2 c4 | B4 c4 d4 G2 G2 | ABcd e2 c2 B4 A4 | z2 A4 c4 B4 c2- | %30
w: pel chiu- * * * * * * *|da, tal che|mi fec', hor quand' e-|gli\_ar- * * * * d'il cie- lo,|tal che mi fec',|
 c2 d2 z2 g2 e4 f4 | e4 d4 d2 d2 edcB | A2 f2 f2 ed ^c2 d4 c2 | d8 B4 B2 =c2 | c3 d cd c3 d c4 c2 | %35
w: _ hor tal che mi|fec', hor quand' e- gli\_ar- * * *|* d'il cie- * * * * *|lo, tut- to tre-|mar _ _ _ _ _ _ d'un|
 f3 f e2 A4 G4 ^F2 | G4 A2 d3 d c4 B2 | cd e4 d4 cB A2 B2- | Bc d3 c c4 BA B4 | c16 |] %40
w: a- mo- ro- so gie- *|lo, d'un a- mo- ro- so|gie- * * * * * * *||lo.|
V:2
 G4 | [A,d]2 |[M:4/2] G8 A4 B4 | c8 B8 | z4 G2 G2 E2 G2 ^F4 | G4 z4 B8 | c4 G4 A2 B2 c2 A2 | %7
w: ||Non al suo\_a-|man- te|più Di- a- na piac-|que, quan-|do per tal ven- tu- ra|
 B2 A2 G2 GF E8 | G4 D4 E2 F2 G2 E2 | F2 E2 D2 DC B,4 G4 | E6 E2 E4 F4 | E4 E4 E6 F2 | G8 E8 | %13
w: tut- ta\_i- gnu- da la vi-|de, per tal ven- tu- ra|tut- ta\_i- gnu- da la vi- de\_in|mez- zo de le|ge- li- de\_ac- *|* que,|
 z8 z2 A2 A2 F2 | G2 A2 _B4 F4 A4- | A4 G8 F4- | F4 E4 z2 A2 G2 A2 | G8 z2 B2 A2 B2 | %18
w: ch'a me la|pas- to- rel- la\_al- pes-|* tra\_e cru-|* da post' a ba-|gnar, post' a ba-|
 A2 B2 B3 c A2 c2 B4 | c2 G2 G3 A B2 A2 A3 B | G2 G2 A4 B8 | z4 G4 E8 | F4 F2 G2 A2 AB c4 | %23
w: gnar un leg- gia- dret- to ve-|lo, post' a ba- gnar un leg- gia-|dret- to ve- lo,|ch'a l'au-|ra\_il va- go\_e bion- do ca- pel|
 B2 A2 A6"^#" ^G^F G4 | A8 z8 | z8 z4 D4 | F4 E4 F4 G4 | z8 z2 G2 E4 | F4 E4 D8 | z16 | %30
w: chiu- * * * * *|da,|tal|che mi fec', hor,|tal che|mi fec', hor||
 z2 A,2 C2 B,4 C2 D4 | E2 E2 FEDC B,2 G4 A2- | AGFE D2 E2 F2 ED E4 | ^F8 z4 G4 | %34
w: tal che mi fec', hor|quand' e- gli\_ar- * * * * d'il cie-||lo, tut-|
 G2 A2 A3 G A3 G AG A2- | A2 A2 ^c3 c d2 B2 A4 | B2 G2 ^F3 F G2 E2 D4 | G4 A4 A3 G ^F2 G2 | G16 | %39
w: to tre- mar _ _ _ _ _ _|_ d'un a- mo- ro- so gie-|lo, d'un a- mo- ro- so gie-|lo, d'un a- mo- ro- so|gie-|
 G16 |] %40
w: lo.|
V:3
 E4 | [D,A]2 |[M:4/2] E8 E4 G4 | G8 G4 G2 G2 | F2 E2 D4 G4 D4- | D4 B,8 G4- | %6
w: ||Non al suo\_a-|man- te più Di-|a- na piac- que, quan-|* do, quan-|
 G4 E2 E2 C2 D2 E2 F2 | G2 F2 E2 ED C8 | G,4 B,4 B,2 A,2 B,2 C2 | D2 C2 B,2 B,A, G,4 B,4 | %10
w: * do per tal ven- tu- ra|tut- ta\_i- gnu- da la vi-|de, per tal ven- tu- ra|tut- ta\_i- gnu- da la vi- de\_in|
 ^C6 C2 C4 D4 | B,4 B,4 =C6 D2 | E4 D4 z2 G2 G2 G2 | E2 A2 G4 F2 F2 F2 D2 | E2 F2 G4 D4 F4- | %15
w: mez- zo de le|ge- li- de\_ac- *|* que, ch'a me la|pas- to- rel- la, ch'a me la|pas- to- rel- la\_al- pestr'|
 F4 E4 A8 | G8 z2 F2 E2 F2 | C4 z4 z2 G2 ^F2 G2 | D2 G2 G3 E =F2 A2 G4 | C2 E2 D2 E2 D2 ^F2 F3 G | %20
w: _ e cru-|da post' a ba-|gnar, post' a ba-|gnar un leg- gia- dret- to ve-|lo, post' à ba- gnar un leg- gia-|
 E2 G2 ^F4 G4 D4 | E2 D2 D6"^#" ^CB, C4 | D8 z8 | z16 | z2 E2 C2 D2 E2 EF G4 | F6 E2 D8- | %26
w: dret- to ve- lo, ch'a|l'au- * * * * *|ra||il va- go\_e bion- do ca- pel|chiu- * *|
 D4 ^C4 z2 D2 E4 | D2 E3 D =C4 B,2 z4 | z8 z2 D2 F4 | E4 F4 G8 | A2 A2 GFEF G2 G,2 A,3 B, | %31
w: * da, tal che|mi fec', _ _ hor,|tal che|mi fec', hor|quand' e- gli\_ar- * * * * d'il cie- *|
 ^C4 D4 z2 B,2 E2 F2- | FG A2 A4 A8 | A8 z4 E4 | E2 F2 F3 E F3 E FE F2- | F2 D2 A3 A ^F2 G2 D4 | %36
w: * lo, quand' e- gli\_ar-|* * * d'il cie-|lo, tut-|to tre- mar _ _ _ _ _ _|_ d'un a- mo- ro- so gie-|
 G,4 z4 z4 z2 G2 | E3 E ^C2 D2 A,4 D,2 G,2 | D3 D E2 E2 D8 | C16 |] %40
w: lo, d'un|a- mo- ro- so gie- lo, d'un|a- mo- ro- so gie-|lo.|
V:4
 C4 | [C,E]2 |[M:4/2] C8 A,4 G,4 | C8 G,4 G,2 G,2 | A,2 C2 B,4 C4 z4 | G,8 E,8 | C8 A,8 | %7
w: ||Non al suo\_a-|man- te piú Di-|a- na piac- que,|quan- do,|quan- do|
 z4 G,4 A,2 B,2 C2 A,2 | B,2 A,2 G,2 G,F, E,8 | D,4 G,8 E,4 | A,12 D,4 | E,4 E,4 A,8 | %12
w: per tal ven- tu- ra|tut- ta\_i- gnu- da la vi-|de\_in mez- zo|de le|ge- li- de\_ac-|
 G,8 C,4 z2 C2 | C2 A,2 B,2 C2 D8 | C4 _B,8 A,4 | C16- | C8 F,4 z4 | z2 C2 B,2 C2 G,4 z4 | z16 | %19
w: * que, ch'a|me la pas- to- rel-|la\_al- pes- tra\_et|cru-|* da|post' a ba- gnar,||
 z2 C2 B,2 C2 G,2 D2 D3 B, | C2 E2 D4 G,8 | G,8 A,8 | D,8 z8 | D8 E8 | A,4 A,2 B,2 C2 CD E4 | %25
w: post' à ba- gnar un leg- gia-|dert- to ve- lo,|ch'a l'au-|ra,|ch'a l'au-|da\_il va- go\_e bion- do ca- pel|
 D6 C2 B,8 | A,8 D4 C4 | G,4 A,4 G,4 C2 C2 | F,G,A,B, C2 C,2 G,A,B,C D4 | A,8 z2 G,2 E,4 | %30
w: chiu- * *|da, tal che|mi fec', hor quand' e-|gli\_ar- * * * * d'il cie- * * * *|lo, tal che|
 F,4 E,8 D,4 | A,2 A,2 DCB,A, G,2 G,2 CB,A,G, | F,6 G,2 A,8 | D,8 z8 | z16 | z16 | %36
w: mi fec', hor|quand' e- gli\_ar- * * * * d'il cie- * * *||lo,|||
 z2 G,2 D3 D B,2 C2 G,4 | C,4 z4 z2 A,2 D3 D | B,4 C4 G,8 | C,16 |] %40
w: d'un a- mo- ro- so gie-|lo, d'un a- mo-|ro- so gie-|lo.|

